src/main/resources/img/object/trigger/TriggerDisabled.svg

<svg width="16" height="16" version="1.1" viewBox="0 0 16 16"  xmlns="http://www.w3.org/2000/svg"><g><path d="m2 5v8h7v-2-5h1.4004l3.5996 2.4316v-3.4316h-12z" fill="#fff"/><path d="m1 2v12h8v-1h-3v-2h3v-1h-3v-2h3v-1h-3v-2h4v1h0.40039l0.59961 0.4043v-1.4043h3v2h-2.1191l1.4805 1h0.63867v0.43164l1 0.67578v-7.1074h-14zm1 3h3v2h-3v-2zm0 3h3v2h-3v-2zm0 3h3v2h-3v-2zm13 1.8926-1.6387 1.1074h1.6387v-1.1074z" fill="#b1b2b4"/><polygon transform="matrix(.85714 0 0 .88889 3.1429 3.4444)" points="15 8.5 8 13 8 4" fill="#999"/></g></svg>

<svg width="16" height="16" xmlns="http://www.w3.org/2000/svg"><path d="M2 5v8h7V6h1.4L14 8.432V5H2z" fill="#fff"/><path d="M1 2v12h8v-1H6v-2h3v-1H6V8h3V7H6V5h4v1h.4l.6.404V5h3v2h-2.12l1.481 1h.64v.432l1 .675V2H1zm1 3h3v2H2V5zm0 3h3v2H2V8zm0 3h3v2H2v-2zm13 1.893L13.361 14H15v-1.107z" fill="#b1b2b4"/><path fill="#999" d="m16 11-6 4V7z"/></svg>
